X:1
T:8 Lieder und Gesänge, Op.59
T:Agnes
T:5. Agnes
T:8 Lieder und Gesänge, Op.59
T:Johannes Brahms
T:Eduard Mörike
T:OpenScore (CC0)
T:OpenScore (CC0)
T:OpenScore (CC0)
T:OpenScore (CC0)
T:OpenScore (CC0)
C:Johannes Brahms
Z:Eduard Mörike
Z:OpenScore (CC0)
%%score 1 { ( 2 4 ) | ( 3 5 ) }
L:1/8
Q:1/4=70
M:3/4
K:Bb
V:1 treble nm="Voice"
V:2 treble nm="Piano"
V:4 treble 
V:3 bass 
V:5 bass 
V:1
"^Con moto" z6 | z4 |!f! d3/2 d/ d3 B | A3/2 B/ G2 |!p! A3/2 B/ G2 |!f! e e e3 c | B2 A2 | %7
w: ||Ro- sen- zeit, wie|schnell vor- bei,|schnell vor- bei,|bist du doch ge-|gan- gen!|
 d d f3 d | c3/2 e/ d2 |!p! c3/2 e/ d2 |!f! e c _B3 A | c2 =B2 | d d f3 d | c3/2 e/ d2 | %14
w: Wär mein Lieb nur|blie- ben treu,|blie- ben treu,|soll- te mir nicht|ban- gen,|wär mein Lieb nur|blie- ben treu,|
!p! c3/2 e/ d2 |!f! e c _B3 A | A2 G2 || z6 | z4 | d3/2 d/ d3 B |!mp!!>(! A3/2 B/!>)!!pp! G2 | %21
w: blie- ben treu,|soll- te mir nicht|ban- gen.|||Um die Ern- te|wohl- ge- mut,|
!mp!!>(! A3/2 B/!>)!!pp! G2 | e e e3 c | B2 A2 | d d f3 d |!>(! c3/2 e/!>)! d3/2 d/ | %26
w: wohl- ge- mut|Schnit- ter- in- nen|sin- gen,|a- ber, ach! mir|kran- kem Blut, mir|
!mp!!>(! c3/2 e/!>)!!pp! d2 | e c _B3 A | c2 =B2 | z2 z d g2- | g3/2 e/ d3/2 d/ | g3/2 e/ d2 | %32
w: kran- kem Blut|will nichts mehr ge-|lin- gen,|mir kran-|* kem Blut, mir|kran- kem Blut|
 e c _B3 A | A2 G2 || z6 | z4 | z4 | d d d3 B | A3/2 B/ G2 | A3/2 B/ G2 | e e e3 c | B2 A2 | %42
w: will nichts mehr ge-|lin- gen.||||Schlei- che so durchs|Wie- sen- tal,|so durchs Tal,|als im Traum ver-|lo- ren,|
 d d f3 d | c3/2 e/ d2 | c3/2 e/ d2 | e c _B3 A | c2 =B2 | z2 z d (g2 | g3/2) e/ d2 | g3/2 e/ d2 | %50
w: nach dem Berg, da|tau- send- mal,|tau- send- mal|er mir Treu ge-|schwo- ren,|da tau-|* send- mal,|tau- send- mal|
 e c _B3 A | A2 G2 || z6 | z4 | z4 | d d d3 B | A3/2 B/ G2 | A3/2 B/ G2 | e e e3 c | B2 A2 | %60
w: er mir Treu ge-|schwo- ren.||||O- ben auf des|Hü- gels Rand,|ab- ge- wandt,|wein ich bei der|Lin- de;|
 d d f3 d | c3/2 e/ d3/2 A/ | c3/2 e/ d2 | e c _B3 A | c2 =B2 | z2 z d g2- | g e d3/2 d/ | %67
w: an dem Hut mein|Ro- sen- band von|sei- ner Hand,|spie\- let in dem|Win- de,|mein Ro-|* sen- band von|
 g3/2 e/ d2 | e c _B3 A | A2 G2 | z6 | z4 |] %72
w: sei- ner Hand,|spie- let in dem|Win- de.|||
V:2
 [G,EG]>[G,EG] ([G,EG]3 [CEc]) | [DGB]2 [D^FA]2 |!f! [DBd]>[DBd] [DBd]3 [DGB] | %3
 [C^FA]>[DB] [B,G]2 |!p! [C^FA]>[DB] [B,G]2 |!f! [EGe][EGe] [EGe]3!>(! [CGc] | [DGB]2!>)! [D^FA]2 | %7
!<(! [G=Bd][GBd]!<)!!>(! [Gdf]3!>)! [Gd] | [Gc]>[Ge] [^Fd]2 |!p! [Gc]>[Ge] [^Fd]2 | %10
!f! [EGe][CGc] [DG_B]3 [D^FA] | [DAc]2 [DG=B]2 | z2 [G=Bd][GBd] [GBg-]2 | [Gcg]>[Ge] [^Fd]2 | %14
!p! [Gc]>[Ge] [^Fd]2 |!f! [EGe][CGc] [DG_B]3 [C^FA] | [C^FA]2 [B,G]2 || %17
 z!f! ([Ge]2!>(! [Fd]2 [Ec]) | z [DGB]z!>)![D^FA] |!p! z (.[DBd] z .[DAc] z .[DGB]) | %20
 z (.[C^FA]z.[B,D]) | z (.[C^FA]z.[B,D]) |!p! z (.[EGe] z .[D=Fd] z .[CGc]) | z [DGB] z [D^FA] | %24
 z (.[D=Bd] z .[DAc] z .[DGB]) |!>(! z [CGc]!>)! z!p! [DA] |!>(! z!>)! [CGc] z [DA] | %27
 z [EGc] z [DG_B] z [D^FA] | z [DAc] z [DG=B] |!<(! z d!<)! f3 d | z [Gc] z [DAd] | %31
 z [Gc] z [DAd] | z [EGc] z [DG_B] z [C^FA] | z [C^FA] z [B,D] ||!f! [Geg]>[Geg] [Geg]3 [Gce] | %35
 z!>(! [GBd]z[EAc] | z [DGB]z!>)![D^FA] |!p! z ([Bd][Ac][GB][Ac][Bd]) | x4 | x4 | %40
 z!>(! ([Ge][Fd][Ec][DB]!>)![CA]) |!pp! (D[^C=EG][D^F][FA]) | z ([=Bd][Ac][GB][Ac][Bd]) | %43
"_cresc." z (GAD) | z (GAD) | z ([Ec][G_B][Ac][Bd][^FA]) | z [^FA]z[G=B] |!mp! z d!mf! (f3 d) | %48
 z (cdA) | z (cdA) | z ([Ec][D_B][CA][B,G][A,^F]) | z [C^F]z[B,D] ||!f! z (^FG=F=E_E) | (D3!>(! C | %54
 B,3!>)! A,) |!p! z!<(! ([A^c][Bd]!<)!!>(![D=c][G=B]!>)![^C_B]) | ([^FA][=CF][B,D][DG]) | %57
 ([CA][A,^F][B,D][DG]) | z!<(! ([G=B][_Ac]!<)!!>(![G_B][FA][Ec])!>)! | (B=EA^F) | %60
 z!<(! ([A^c][_Bd]!<)!!>(![_A=c][G=B][Fd])!>)! | ([Gc][Ee][^Fd][DA]) | ([Ec][Be][Ad][^FA]) | %63
 z ([EG][D_B][^C=E][=C^F]D) | ([E^F][CA][=B,D]G) |!<(! z ([c^f][=Bg]!<)!!>(![_A=f][Ge][Ad])!>)! | %66
 ([Gc][Ge][^Fd]A) | ([Gc][Ge][^Fd]A) | z (ed^c=cd) | (c2 B2) |!f! z!>(! ([d^f][eg][d=f][ce]!>)!c) | %71
!mp! [C^FA]2 [B,G]2 |] %72
V:3
!f! [C,,C,]>[C,,C,] ([C,,C,]3 [A,,,A,,]) | [D,,D,]2 [D,,,D,,]2 | %2
 [G,,,G,,]>[G,,,G,,] [G,,,G,,]3 [B,,,B,,] | [D,,D,]>[D,,D,] [G,,D,]2 | [D,,D,]>[D,,D,] [G,,D,]2 | %5
 [C,,C,][C,,C,] [C,,C,]3 [E,,E,] | [D,,D,]2 D,2 | [G,=B,D]2 [G,,G,]2 [G,B,]2 | %8
 [E,C]>[C,C] [D,A,]2 | [E,C]>[C,C] [D,A,]2 | [C,,C,][E,,E,] [D,,D,]2 [D,,,D,,]2 | %11
 [G,,,G,,]2 [G,,G,]2 | [G,=B,D][G,B,D] [G,DF]3 [G,D] | [E,C]>[C,C] [D,A,]2 | [E,C]>[C,C] [D,A,]2 | %15
 [C,,C,][E,,E,] [D,,D,]2 [D,,,D,,]2 | [G,,,G,,]2 [G,,G,]2 || %17
 [C,,C,]>[C,,C,] ([C,,C,]2 [A,,,A,,]2) | [D,,D,]2 [D,,,D,,]2 | %19
 .[G,,G,] z .[G,,,G,,] z .[B,,,B,,] z | .[D,,D,] z .[G,,G,] z | .[D,,D,] z .[G,,G,] z | %22
 .[C,C] z .[C,,C,] z .[E,,E,] z | .[D,,D,] z .D, z | .[G,,G,] z .[G,,,G,,] z .[G,,G,] z | %25
 [E,,E,] z [^F,,,^F,,] z | [E,,E,] z [^F,,,^F,,] z | [C,,C,] z [D,,D,] z [D,,,D,,] z | %28
 [G,,,G,,] z [G,,G,] z | G, z G,, z G, z | E, z ^F,, z | E, z ^F,, z | C, z D, z D,, z | %33
 [G,,,G,,] z [G,,G,] z || z (C,B,,A,,B,,C,) | D,2 (B,,C,) | D,2 D,,2 | G,,2 z ([B,D][A,C][G,B,]) | %38
 ([A,C][^F,D][G,B,][B,D]) | ([A,C][^F,D][G,B,][B,D]) | [C,,C,]2 z2 C,2 | .[D,B,] z .[D,A,] z | %42
 G,,2 z (FDG,) | .E, z .^F,, z | .E, z .^F,, z | .C, z .D, z .D,, z | .G,,, z .G,, z | %47
!<(! .G, z .G,,!<)! z .G, z | .E, z .^F,, z | .E, z .^F,, z | .C, z .D, z .D,, z | .G,, z .G, z || %52
 x[I:staff -1] DE[I:staff +1]G,C^F, | =B,_B, A,2- | A,G, ^F,2 | (G,2 G,,4) | (D,D,,G,,B,,) | %57
 (D,D,,G,,B,,) | (C,2 C,,4) | D,,D,^F,A, | (D2 D,2 G,,2) | (E,C,D,^F,) | (A,G,^F,D,) | %63
 C,2 D,2 D,,2 | (G,,D,G,=B,) | [G,D][G,D] [G,=F]2 (G,F, | E,C,D,D,,) | (E,,C,,D,,D,) | %68
 C,2 D,2 D,,2 | G,,2 G,2 | [C,,C,]>[C,,C,] ([C,,C,]3 [A,,,A,,]) | [D,,D,]2 [G,,,G,,]2 |] %72
V:4
 x6 | x4 | x6 | x4 | x4 | x6 | x4 | x6 | x4 | x4 | x6 | x4 | x6 | x4 | x4 | x6 | x4 || x6 | x4 | %19
 x6 | x4 | x4 | x6 | x4 | x6 | x4 | x4 | x6 | x4 | x [D=B] z!>(! [FAc] z!>)! [GB] | x4 | x4 | x6 | %33
 x4 || x6 | x4 | x4 | x6 | x4 | x4 | x6 | x4 | x6 | x C A,2 | x C A,2 | x6 | x4 | %47
 x (=B[Ac][GB][Ac]B) | z G D2 | z G D2 | x6 | x4 || x6 | x4 | x4 | x6 | x4 | x4 | x6 | D^CD^F | %60
 x6 | x4 | x4 | x6 | x4 | x6 | x4 | x4 | x G_B=E^FD | _E^F DG | x G3- GE | x4 |] %72
V:5
 x6 | x4 | x6 | x4 | x4 | x6 | x4 | x6 | x4 | x4 | x6 | x4 | x6 | x4 | x4 | x6 | x4 || x6 | x4 | %19
 x6 | x4 | x4 | x6 | x4 | x6 | x4 | x4 | x6 | x4 | x6 | x4 | x4 | x6 | x4 || x6 | x4 | x4 | x6 | %38
 z .D,, z .G,, | z D,, z G,, | x6 | x4 | x6 | x4 | x4 | x6 | x4 | x6 | x4 | x4 | x6 | x4 || %52
 (C,2 C,,3) A,,, | D,,2 D,2 | D,,2 D,2 | x6 | x4 | x4 | x6 | x4 | x6 | x4 | x4 | x6 | x4 | x6 | %66
 x4 | x4 | x6 | x4 | x6 | x4 |] %72

